X:1
T:Oculi omnium
T:Joseph Hartmann Stuntz
T:Oculi omnium
T:CPDL   —   Creative Commons Attribution Non Commercial 3.0
T:CPDL   —   Creative Commons Attribution Non Commercial 3.0
C:Joseph Hartmann Stuntz
Z:CPDL   —   Creative Commons Attribution Non Commercial 3.0
%%score [ ( 1 2 ) 3 4 ]
L:1/8
M:4/4
K:C
V:1 treble nm="Sopran\nAlt"
V:2 treble 
V:3 treble-8 nm="Tenor"
V:4 bass nm="Bass"
V:1
!f! G3 G G4 | c3 c c4 | f3 f e4 |!p! e4 d2 c2 | B4 c4 | (f2 e2) d2 c2 | d8 ||!p! z8 | (G4 A2) B2 | %9
w: O- cu- li,|o- cu- li|om- ni- um|spe- * *|* rant,|spe- * rant in|te,||et _ tu|
 c6 c2 | (c2 ^c2) d2 e2 | f4 d4 | (g2 f2) e2 e2 | e4 d2 c2 | A3 A G2 G2 | f3 f e4 |!p! G4 A4 | %17
w: das, tu|das _ il- lis|es- cam,|es- * cam il-|lo- rum in|tem- po- re, in|tem- po- re|op- por-|
 B4 c4 |!f! c2 d2 e2 e2 | e2 f4 e2 | d8 |"^ohne Alleluja" !fermata!c8 ||"^mit Alleluja" c4 c2 c2 | %23
w: tu- no,|op- * * por-|tu- * *||no.|no. Al- le-|
!>(! c8!>)! | !fermata!c8 |] %25
w: lu-|ja.|
V:2
 G3 G G4 | E3 E G4 | A3 A ^G4 | A8 | G6 AG | G4 A2 A2 | G8 || (D4 E2) F2 | (G6 F2) | (E4 F2) G2 | %10
w: |||spe-||* rant in|te,|et _ tu|das, _|il- * lis|
 A8 | F2 GA G4 | G4 G2 G2 | G4 G2 G2 | F3 F E2 G2 | G3 G G4 | z2 !>!G4 FE | D2 F2 E2 F2 | G6 ^G2 | %19
w: es-|* * * cam,|||||op- por- *|tu- * no, _|_ _|
 A4 =G4 | G8 | G8 || G4 G2 G2 | A6 GF | G8 |] %25
w: ||||||
V:3
!f! e3 e d4 | c3 c c4 | c3 c B4 |!p! c4 f2 e2 | d4 c4 | B2 c2 c2 c2 | B8 ||!p! (B4 c2) d2 | %8
w: O- cu- li,|o- cu- li|om- ni- um|spe- * *||* * rant in|te,|et _ tu|
 (e6 d2) | (c4 d2) e2 | (f2 e2) d2 ^c2 | d4 B4 | (c2 B2) c2 c2 | c4 B2 c2 | c3 c c2 e2 | d3 d c4 | %16
w: das, _|et _ tu|das _ il- lis|es- cam,|es- * cam il-|lo- rum in|tem- po- re, in|tem- po- re|
 z2!p! !>!e4 dc | B2 d2 c4 |!f! c2 B2 c2 d2 | c4 d2 c2- | c2 BA B2 f2 | !fermata!e8 || e4 e2 e2 | %23
w: op- por- *|tu- * no,|op- * * por-|tu- * *||no.|no. Al- le-|
!>(! f6 ed!>)! | !fermata!e8 |] %25
w: lu- * *|ja.|
V:4
!f!"^Aller Augen warten auf dich," C3 C B,4 | A,3 A, E,4 | D,3 D, E,4 |!p! A,4 F,4- | %4
w: ||||
 F,2 G,F, E,2 F,E, | D,2 C,2 F,2 ^F,2 | G,8 || %7
w: |||
!p!"^und du gibst ihnen Speise zur rechter Zeit." G,6 F,2 | E,4 F,2 G,2 | A,6 G,2 | %10
w: et _|_ _ tu|das, tu|
 (F,2 G,2) F,2 E,2 | D,2 E,F, G,2 F,2 | E,2 D,2 C,2 E,2 | G,4 G,2 E,2 | F,3 F, C,2 C2 | B,3 B, C4 | %16
w: das _ il- lis|es- * * * *|* * cam *||||
!p! E,4 F,4 | G,4 G,2 A,G, |!f! E,2 D,2 C,2 B,,2 | A,,4 B,,2 C,2 | G,8 | !fermata!C,8 || %22
w: op- por-|tu- no, _ _|_ _ _ _||||
 C,4 C2 C2 |!>(! F,8!>)! | !fermata!C,8 |] %25
w: |||

